!!!!SEGMENT: Fsc2012-Quam_pulchra_es.krn
!!!id: Fsc2012
!!!AGN: Motet
!!!SCT: Seay (1979)
!!!voices: 4
!!!COM: Costanzo Festa
!!!OTL: Quam pulchra es
**kern	**kern	**kern	**kern
*part4	*part3	*part2	*part1
*staff4	*staff3	*staff2	*staff1
*I"Tenor	*I"Altus	*I"Superius II	*I"Superius
*I'T	*I'A	*I'S. II	*I'S. I
*clefGv2	*clefG2	*clefG2	*clefG2
*k[b-]	*k[b-]	*k[b-]	*k[b-]
*F:	*F:	*F:	*F:
*M2/1	*M2/1	*M2/1	*M2/1
*met(C|)	*met(C|)	*met(C|)	*met(C|)
!!section: Prima pars: Quam pulchra es
!!!OMD: Prima pars: Quam pulchra es
=1	=1	=1	=1
0r	0f	2.f	0r
.	.	4g	.
.	.	4a	.
.	.	4b-y	.
.	.	[2cc	.
=2	=2	=2	=2
0r	1f	2cc]	0r
.	.	4b-y	.
.	.	4a	.
.	1g	1b-y	.
=3	=3	=3	=3
0r	1f	2a	0f
.	.	2.cc	.
.	2r	.	.
.	.	4b-y	.
.	2cc	[2a	.
=4	=4	=4	=4
0r	2cc	4a]	1f
.	.	4g	.
.	2a	1f	.
.	1b-y	.	1g
.	.	2e	.
=5	=5	=5	=5
0F	2a	1f	1f
.	2.cc	.	.
.	.	1c	2r
.	4b-y	.	.
.	[2a	.	2cc
=6	=6	=6	=6
1F	4a]	2r	2cc
.	4g	.	.
.	1f	1c	2a
1G	.	.	1b-y
.	2e	2B-y	.
=7	=7	=7	=7
1F	1f	0c	2.a
.	.	.	8gL
.	.	.	8fJ
2r	1g	.	2.e
2c	.	.	.
.	.	.	4f
=8	=8	=8	=8
2c	2r	2r	4g
.	.	.	4e
2A	2f	2c	1a
1B-y	2f	2d	.
.	2d	2B-y	2g
=9	=9	=9	=9
1A	1e	1c	2a
.	.	.	1cc
2r	1d	2G	.
2G	.	[2g	[2b-y
=10	=10	=10	=10
2G	1g	2g]	2b-]
2E	.	1cc	2g
1F	2c	.	1a
.	[2f	2cc	.
=11	=11	=11	=11
0C;	2f]	0cc;	0g;
.	4e	.	.
.	4d	.	.
.	1e;	.	.
=12	=12	=12	=12
0r	0r	2.f	0f
.	.	4g	.
.	.	4a	.
.	.	4b-y	.
.	.	[2cc	.
=13	=13	=13	=13
0r	0r	2cc]	1f
.	.	4b-y	.
.	.	4a	.
.	.	1b-y	1g
=14	=14	=14	=14
0r	0f	2a	1f
.	.	2.cc	.
.	.	.	2r
.	.	4b-y	.
.	.	[2a	2cc
=15	=15	=15	=15
0r	1f	4a]	2cc
.	.	4g	.
.	.	1f	2a
.	1g	.	1b-y
.	.	2e	.
=16	=16	=16	=16
0F	1f	1f	2a
.	.	.	2.cc
.	2r	1c	.
.	.	.	4b-y
.	2cc	.	[2a
=17	=17	=17	=17
1F	2cc	2r	4a]
.	.	.	4g
.	2a	1c	1f
1G	1b-y	.	.
.	.	2B-y	2e
=18	=18	=18	=18
1F	2.a	0c	1f
.	8gL	.	.
.	8fJ	.	.
2r	2.e	.	1g
2c	.	.	.
.	4f	.	.
=19	=19	=19	=19
2c	4g	2r	2r
.	4e	.	.
2A	1a	2cc	2f
1B-y	.	2dd	2f
.	2g	2b-y	2d
=20	=20	=20	=20
1A	1a	2.cc	1e
.	.	4b-y	.
2r	1f	4a	2.d
.	.	4g	.
2B-y	.	4f	.
.	.	4e	4e
=21	=21	=21	=21
2B-y	2r	2d	2f
2G	2e	1g	2g
1A	2e	.	2c
.	2c	2f#i	[2cc
=22	=22	=22	=22
1G	1d	0g	2cc]
.	.	.	2bni
1r	[1c	.	[1cc
=23	=23	=23	=23
1c	1c]	1e	2cc]
.	.	.	4b-y
.	.	.	4a
2c	1r	2r	2g
2c	.	2e	2a
=24	=24	=24	=24
1d	1r	1f	2a
.	.	.	4g
.	.	.	4f
2c	1cc	2g	1e
[2A	.	[2a	.
=25	=25	=25	=25
4A]	2cc	2a]	0r
4B-y	.	.	.
4c	2cc	4g	.
4A	.	4a	.
1B-y	1dd	2f	.
.	.	2g	.
=26	=26	=26	=26
1A	2cc	1a	1cc
.	2.a	.	.
1r	.	2e	2cc
.	4b-y	.	.
.	4cc	[2a	2cc
.	4a	.	.
=27	=27	=27	=27
1r	1b-y	2a]	1dd
.	.	2g	.
1F	2a	1a	2cc
.	[2f	.	[2a
=28	=28	=28	=28
2F	4f]	1A	4a]
.	4g	.	4b-y
2F	2a	.	4cc
.	.	.	4a
1G	1d	2r	1b-y
.	.	2B-y	.
=29	=29	=29	=29
2F	2r	2c	1a
2.D	2f	1d	.
.	2f	.	1r
4D	.	.	.
4E	2f	4c	.
4D	.	4d	.
=30	=30	=30	=30
1E	1g	2B-y	1r
.	.	2c	.
[1D	2f	1d	1f
.	[2d	.	.
=31	=31	=31	=31
2D]	4d]	2.a	2f
.	4e	.	.
1d	4f	.	2f
.	4d	4g	.
.	1e	4a	1g
.	.	4b-y	.
2c	.	2cc	.
=32	=32	=32	=32
1d	2d	2b-y	2f
.	2.f	1a	2.d
1B-y	.	.	.
.	4e	.	4e
.	[2d	2g	4f
.	.	.	4d
=33	=33	=33	=33
1.A	2d]	1a	1e
.	2c	.	.
.	[1f	2r	2d
[2D	.	[2dd	[2a
=34	=34	=34	=34
2D]	2f]	2dd]	2a]
2E	2e	2cc	2g
2F	1d	2a	2f
2G	.	2b-y	2f
=35	=35	=35	=35
[0A	0c	1a	1e
.	.	2a	2r
.	.	[2cc	2a
=36	=36	=36	=36
0A_	2r	2cc]	1cc
.	2a	2c	.
.	1cc	1e	2r
.	.	.	2a
=37	=37	=37	=37
0A_	2r	2a	1cc
.	2a	1cc	.
.	1cc	.	2r
.	.	2c	2a
=38	=38	=38	=38
0A]	2r	0e	1.cc
.	2a	.	.
.	2.a	.	.
.	.	.	2b-y
.	4g	.	.
=39	=39	=39	=39
1r	2f	1cc	2a
.	2e	.	2g
1F	1f	[1cc	1a
=40	=40	=40	=40
1.c	2.e	1cc]	1g
.	4f	.	.
.	4g	1r	2r
.	4e	.	.
2B-y	4f	.	2dd
.	4d	.	.
=41	=41	=41	=41
2A	4e	1r	2cc
.	4f	.	.
2G	1g	.	1ee
1A	.	1c	.
.	2f#i	.	4dd
.	.	.	4cc
=42	=42	=42	=42
0G	2g	2d	2bni
.	2e	2g	1cc
.	1d	1g	.
.	.	.	2bni
=43	=43	=43	=43
1C	1c	1g	1cc
1r	1r	1r	1r
=44	=44	=44	=44
0C	0e	0g	0c
=45	=45	=45	=45
1C	1e	1g	1c
*^	*	*	*
1C	1C	1g	1cc	1e
*v	*v	*	*	*
=46	=46	=46	=46
1F	1f	1a	2c
.	.	.	2.d
1C	1e	1g	.
.	.	.	4c
.	.	.	[2c
=47	=47	=47	=47
0G	0d	0g	2c]
.	.	.	4Bni
.	.	.	4A
.	.	.	1Bni
=48	=48	=48	=48
0C	[0e	0g	[0c
=49	=49	=49	=49
2r	0e]	2r	1c]
2A	.	2cc	.
2G	.	2b-y	1r
[2A	.	2cc	.
=50	=50	=50	=50
2A]	0r	4c	2r
.	.	4d	.
4G	.	4e	2a
4F	.	4f	.
2E	.	2g	2g
[2F	.	2c	[2a
=51	=51	=51	=51
4F]	1r	1a	2a]
4G	.	.	.
4A	.	.	4g
4B-y	.	.	4f
2c	2r	2g	2e
2F	2a	2f	2cc
=52	=52	=52	=52
2G	2g	2d	2b-y
2.F	1a	4f	1cc
.	.	4g	.
.	.	4a	.
4G	.	4b-y	.
4A	4g	[2cc	4b-y
4B-y	4f	.	4a
=53	=53	=53	=53
2c	2e	2cc]	2g
2d	1f	2b-y	2f
1c	.	1cc	1g
.	2e	.	.
=54	=54	=54	=54
1F	0f	1cc	1a
1B-y	.	[1dd	2d
.	.	.	[2f
=55	=55	=55	=55
1B-y	0r	2dd]	2f]
.	.	4cc	4e
.	.	4b-y	4d
1A	.	4cc	[1a
.	.	4b-y	.
.	.	4a	.
.	.	4g	.
=56	=56	=56	=56
1.d	1r	1f	2a]
.	.	.	2g
.	1f	1r	2f
2c	.	.	2e
=57	=57	=57	=57
2B-y	1f	2r	2d
2A	.	2f	2c
1G	1e	2g	1B-y
.	.	2e	.
=58	=58	=58	=58
1F	1.a	1.f	1c
1r	.	.	1cc
.	2g	2e	.
=59	=59	=59	=59
1F	2f	1c	1cc
.	2e	.	.
1G	1d	[1g	1b-y
=60	=60	=60	=60
2C	1c	1g]	1.ee-i
1c	.	.	.
.	1r	2r	.
2B-y	.	2g	2dd
=61	=61	=61	=61
2A	1f	2a	2cc
2G	.	2b-y	2b-y
1F	1f	1cc	1a
=62	=62	=62	=62
1c	1e	1cc	1g
1r	[1a	1r	1r
=63	=63	=63	=63
0F	2a]	1a	1cc
.	2g	.	.
.	2f	1a	1cc
.	2e	.	.
=64	=64	=64	=64
1G	1d	1g	1b-y
2C	1c	1g	[1ee-i
[2c	.	.	.
=65	=65	=65	=65
2c]	2r	2r	2ee-]
2B-y	2d	2g	2dd
2A	2e	2a	2cc
2G	2e	2b-y	2b-y
=66	=66	=66	=66
1F	1f	1cc	1a
00Cl	00el	00ccl	00gl
==	==	==	==
*-	*-	*-	*-
!!!system-decoration: [*]
!!!RDF**kern: i = editorial accidental
!!!RDF**kern: l = terminal long
!!!ENC: Benjamin Ory
!!!END: 2021/1/14
!!!EED: Benjamin Ory
!!!EEV: 2021/04/23
!!!YEC: Copyright 2021 Benjamin Ory, All Rights Reserved
!!!ONB: Translated from MusicXML on 2021/04/23
